X: 21321
T: NEW DICK HORNPIPE
R: hornpipe, reel
B: K\"ohler's Violin Repository, v.2, 1885 p.132 #1
F: http://www.archive.org/details/klersviolinrepos02rugg
Z: 2012 John Chambers <jc:trillian.mit.edu>
M: C|
L: 1/8
K: Bb
uF2 |\
B2B2 Bdce | d2d2 dfeg | fbag fedc | Bdfd ecAc |
B2B2 Bdce | d2d2 dfeg | fbag fedc | B2B2 B2 :||: u(FE) |
DBFB DBFB | EBGB EBGB | ecAc ecAc | dBFB dBFB |
DBFB DBFB | EBGB EBGB | ecAc ecAc | B2B2 B2 :|

%%sep 2 1 500

